X:1
T:Friends and Neighbors
M:3/2
L:1/8
K:C
 G2A-B c4 B2 GA| A2 GA A3- G E4| G2 A2 B2| c4 B2| G2 A2 AG A4 E2|E-D C C4 E2 EF|\
 G2 E3- F D4 E2| GA A4 G2- E2 D2|D-C C4 z4 z2|
